server/website/public/icons/base/project.svg

<svg width="48" height="48" viewBox="0 0 48 48" fill="none" xmlns="http://www.w3.org/2000/svg">
<path d="M5 48V33.3402C5 32.5155 5.19337 31.732 5.58012 30.9897C5.96687 30.2474 6.50475 29.6495 7.19375 29.1959L9.875 27.4021C10.1594 30.866 10.6062 33.8144 11.2156 36.2474C11.825 38.6804 12.7797 41.3814 14.0797 44.3505L5 48ZM17.7359 43.0515C16.3141 40.3299 15.2578 37.4433 14.5672 34.3918C13.8766 31.3402 13.5312 28.1856 13.5312 24.9278C13.5312 19.7732 14.5371 14.9179 16.5489 10.3621C18.5606 5.80619 21.211 2.35216 24.5 0C27.7906 2.35052 30.4418 5.80454 32.4536 10.3621C34.4653 14.9196 35.4704 19.7748 35.4687 24.9278C35.4687 28.1443 35.1234 31.2685 34.4328 34.3002C33.7422 37.332 32.6859 40.2491 31.2641 43.0515H17.7359ZM24.5 25.732C25.8406 25.732 26.9887 25.2478 27.9442 24.2796C28.8997 23.3113 29.3766 22.146 29.375 20.7835C29.3734 19.421 28.8964 18.2565 27.9442 17.2899C26.9919 16.3233 25.8439 15.8384 24.5 15.8351C23.1561 15.8318 22.0089 16.3167 21.0582 17.2899C20.1076 18.2631 19.6299 19.4276 19.625 20.7835C19.6201 22.1394 20.0979 23.3047 21.0582 24.2796C22.0186 25.2544 23.1659 25.7386 24.5 25.732ZM44 48L34.9203 44.3505C36.2203 41.3814 37.175 38.6804 37.7844 36.2474C38.3937 33.8144 38.8406 30.866 39.125 27.4021L41.8062 29.1959C42.4969 29.6495 43.0356 30.2474 43.4223 30.9897C43.8091 31.732 44.0016 32.5155 44 33.3402V48Z" fill="black"/>
</svg>

<svg width="48" height="48" fill="none" xmlns="http://www.w3.org/2000/svg"><path d="M5 48V33.34c0-.825.193-1.608.58-2.35a4.723 4.723 0 011.614-1.794l2.681-1.794c.284 3.464.731 6.412 1.34 8.845.61 2.433 1.565 5.134 2.865 8.103L5 48zm12.736-4.949a35.577 35.577 0 01-3.169-8.66 42.747 42.747 0 01-1.036-9.463c0-5.155 1.006-10.01 3.018-14.566C18.56 5.806 21.21 2.352 24.5 0c3.29 2.35 5.942 5.805 7.954 10.362 2.011 4.558 3.016 9.413 3.015 14.566 0 3.216-.346 6.34-1.036 9.372a37.858 37.858 0 01-3.169 8.752H17.736zM24.5 25.732c1.34 0 2.489-.484 3.444-1.452.956-.969 1.433-2.134 1.431-3.497-.002-1.362-.479-2.527-1.43-3.493-.953-.967-2.101-1.452-3.445-1.455-1.344-.003-2.491.482-3.442 1.455-.95.973-1.428 2.138-1.433 3.494-.005 1.355.473 2.52 1.433 3.496.96.974 2.108 1.459 3.442 1.452zM44 48l-9.08-3.65c1.3-2.969 2.255-5.67 2.864-8.103.61-2.433 1.057-5.381 1.341-8.845l2.681 1.794a4.715 4.715 0 011.616 1.794c.387.742.58 1.526.578 2.35V48z" fill="#000"/></svg>
